assets/Magic wand/Flat/magic_wand_flat.svg

<svg width="32" height="32" viewBox="0 0 32 32" fill="none" xmlns="http://www.w3.org/2000/svg">
<path d="M5 29L3 27L19 11L21 13L5 29Z" fill="#433B6B"/>
<path d="M18 12L20 14L21.6741 12.3327C22.1086 11.8878 22.1086 11.0935 21.6741 10.658L21.3436 10.3266C20.8996 9.89111 20 9.99999 19.5 10.5L18 12ZM2.3375 29.2516L2.7475 29.6628C3.1875 30.114 3.9175 30.114 4.3575 29.6528L6 28.0056L4 26L2.3375 27.6271C1.8875 28.0784 1.8875 28.8004 2.3375 29.2516Z" fill="#F4F4F4"/>
<path d="M27.8709 4.42343C28.0014 4.70653 28.2224 4.93105 28.5136 5.05796L29.7288 5.58511C30.0904 5.75107 30.0904 6.24893 29.7288 6.41488L28.5237 6.94203C28.2324 7.06894 28.0014 7.29347 27.8809 7.57657L26.9268 9.74375C26.7561 10.0854 26.2439 10.0854 26.0732 9.74375L25.1191 7.57657C24.9885 7.29347 24.7676 7.06894 24.4763 6.94203L23.2712 6.41488C22.9096 6.24893 22.9096 5.75107 23.2712 5.58511L24.4763 5.05796C24.7676 4.93105 24.9986 4.70653 25.1191 4.42343L26.0732 2.25625C26.2439 1.91458 26.7561 1.91458 26.9268 2.25625L27.8709 4.42343ZM16.4412 5.60266C16.2331 5.51505 16.077 5.35929 15.9834 5.1646L15.307 3.67522C15.1821 3.44159 14.8179 3.44159 14.693 3.67522L14.0167 5.1646C13.9334 5.35929 13.7669 5.51505 13.5588 5.60266L12.6951 5.96283C12.435 6.07964 12.435 6.42036 12.6951 6.53717L13.5588 6.89735C13.7669 6.98496 13.923 7.14071 14.0167 7.3354L14.693 8.82478C14.8179 9.05841 15.1821 9.05841 15.307 8.82478L15.9834 7.3354C16.0666 7.14071 16.2331 6.98496 16.4412 6.89735L17.3049 6.53717C17.565 6.42036 17.565 6.07964 17.3049 5.96283L16.4412 5.60266ZM25.9507 16.2976C25.7473 16.1996 25.5867 16.0363 25.4904 15.8185L24.8051 14.196C24.6767 13.9347 24.3126 13.9347 24.1949 14.196L23.5096 15.8185C23.424 16.0254 23.2527 16.1996 23.0493 16.2976L22.1927 16.6897C21.9358 16.8203 21.9358 17.1906 22.1927 17.3103L23.0493 17.7024C23.2527 17.8004 23.4133 17.9637 23.5096 18.1815L24.1949 19.804C24.3233 20.0653 24.6874 20.0653 24.8051 19.804L25.4904 18.1815C25.576 17.9746 25.7473 17.8004 25.9507 17.7024L26.8073 17.3103C27.0642 17.1797 27.0642 16.8094 26.8073 16.6897L25.9507 16.2976ZM12 14C12.5523 14 13 13.5523 13 13C13 12.4477 12.5523 12 12 12C11.4477 12 11 12.4477 11 13C11 13.5523 11.4477 14 12 14ZM30 13C30 13.5523 29.5523 14 29 14C28.4477 14 28 13.5523 28 13C28 12.4477 28.4477 12 29 12C29.5523 12 30 12.4477 30 13ZM19 4C19.5523 4 20 3.55229 20 3C20 2.44771 19.5523 2 19 2C18.4477 2 18 2.44771 18 3C18 3.55229 18.4477 4 19 4ZM20 21C20 21.5523 19.5523 22 19 22C18.4477 22 18 21.5523 18 21C18 20.4477 18.4477 20 19 20C19.5523 20 20 20.4477 20 21Z" fill="#F9C23C"/>
</svg>

<svg xmlns="http://www.w3.org/2000/svg" width="32" height="32" fill="none"><path fill="#433B6B" d="m5 29-2-2 16-16 2 2L5 29Z"/><path fill="#F4F4F4" d="m18 12 2 2 1.674-1.667c.435-.445.435-1.24 0-1.675l-.33-.331C20.9 9.89 20 10 19.5 10.5L18 12ZM2.338 29.252l.41.41c.44.452 1.17.452 1.61-.01L6 28.007 4 26l-1.663 1.627a1.146 1.146 0 0 0 0 1.625Z"/><path fill="#F9C23C" d="M27.87 4.423c.131.284.352.508.644.635l1.215.527a.453.453 0 0 1 0 .83l-1.205.527a1.22 1.22 0 0 0-.643.635l-.954 2.167c-.17.341-.683.341-.854 0l-.954-2.167a1.256 1.256 0 0 0-.643-.635l-1.205-.527a.453.453 0 0 1 0-.83l1.205-.527a1.22 1.22 0 0 0 .643-.635l.954-2.167c.17-.341.683-.341.854 0l.944 2.167Zm-11.429 1.18a.884.884 0 0 1-.458-.438l-.676-1.49c-.125-.233-.49-.233-.614 0l-.676 1.49a.848.848 0 0 1-.458.438l-.864.36a.309.309 0 0 0 0 .574l.864.36a.885.885 0 0 1 .458.438l.676 1.49c.125.233.49.233.614 0l.676-1.49a.848.848 0 0 1 .458-.438l.864-.36a.309.309 0 0 0 0-.574l-.864-.36Zm9.51 10.695a.948.948 0 0 1-.46-.48l-.686-1.622c-.128-.261-.492-.261-.61 0l-.685 1.623a.947.947 0 0 1-.46.479l-.857.392c-.257.13-.257.5 0 .62l.856.392a.948.948 0 0 1 .46.48l.686 1.622c.128.261.492.261.61 0l.685-1.622a.947.947 0 0 1 .46-.48l.857-.392c.257-.13.257-.5 0-.62l-.856-.392ZM12 14a1 1 0 1 0 0-2 1 1 0 0 0 0 2Zm18-1a1 1 0 1 1-2 0 1 1 0 0 1 2 0ZM19 4a1 1 0 1 0 0-2 1 1 0 0 0 0 2Zm1 17a1 1 0 1 1-2 0 1 1 0 0 1 2 0Z"/></svg>
